assets/icons/id-card.svg

<svg width="18" height="18" viewBox="0 0 18 18" fill="none" xmlns="http://www.w3.org/2000/svg">
<path d="M12.9375 0.5625H5.0625C4.46596 0.563151 3.89404 0.800413 3.47223 1.22223C3.05041 1.64404 2.81315 2.21596 2.8125 2.8125V15.1875C2.81315 15.784 3.05041 16.356 3.47223 16.7778C3.89404 17.1996 4.46596 17.4368 5.0625 17.4375H12.9375C13.534 17.4368 14.106 17.1996 14.5278 16.7778C14.9496 16.356 15.1868 15.784 15.1875 15.1875V2.8125C15.1868 2.21596 14.9496 1.64404 14.5278 1.22223C14.106 0.800413 13.534 0.563151 12.9375 0.5625ZM11.7239 10.0023C11.99 10.2895 12.1201 10.6759 12.0892 11.09C12.0284 11.9148 11.3994 12.5859 10.6875 12.5859C9.97559 12.5859 9.34559 11.9148 9.28547 11.09C9.25523 10.6717 9.38426 10.2846 9.64898 10.0002C9.91371 9.71578 10.2797 9.5625 10.6875 9.5625C10.8813 9.55971 11.0736 9.59738 11.2521 9.67311C11.4305 9.74884 11.5912 9.86096 11.7239 10.0023ZM6.75 2.8125C6.75 2.66332 6.80926 2.52024 6.91475 2.41475C7.02024 2.30926 7.16332 2.25 7.3125 2.25H10.6875C10.8367 2.25 10.9798 2.30926 11.0852 2.41475C11.1907 2.52024 11.25 2.66332 11.25 2.8125C11.25 2.96168 11.1907 3.10476 11.0852 3.21025C10.9798 3.31574 10.8367 3.375 10.6875 3.375H7.3125C7.16332 3.375 7.02024 3.31574 6.91475 3.21025C6.80926 3.10476 6.75 2.96168 6.75 2.8125ZM13.3945 15.6034C13.354 15.6503 13.3037 15.6877 13.2472 15.713C13.1906 15.7384 13.1292 15.751 13.0672 15.75H8.30777C8.24582 15.751 8.18439 15.7384 8.12784 15.713C8.07129 15.6877 8.02098 15.6503 7.98047 15.6034C7.93654 15.5508 7.90501 15.489 7.88822 15.4225C7.87142 15.356 7.86979 15.2867 7.88344 15.2195C7.9977 14.6021 8.35383 14.0836 8.91352 13.7197C9.41062 13.3966 10.0406 13.2188 10.6875 13.2188C11.3344 13.2188 11.9644 13.3966 12.4615 13.7197C13.0212 14.0836 13.3773 14.6021 13.4916 15.2195C13.5052 15.2867 13.5036 15.356 13.4868 15.4225C13.47 15.489 13.4385 15.5508 13.3945 15.6034Z" fill="_COLOR_VAR_"/>
</svg>

<svg xmlns="http://www.w3.org/2000/svg" width="18" height="18"><path d="M12.938.563H5.062a2.25 2.25 0 0 0-2.25 2.25v12.375a2.253 2.253 0 0 0 2.25 2.25h7.876a2.253 2.253 0 0 0 2.25-2.25V2.813a2.253 2.253 0 0 0-2.25-2.25m-1.214 9.44c.266.287.396.673.365 1.087-.06.825-.69 1.496-1.402 1.496-.711 0-1.341-.671-1.402-1.496-.03-.418.1-.805.364-1.09.265-.284.63-.437 1.039-.437a1.4 1.4 0 0 1 1.036.44M6.75 2.812a.563.563 0 0 1 .563-.563h3.375a.562.562 0 1 1 0 1.125H7.312a.563.563 0 0 1-.562-.562m6.645 12.79a.42.42 0 0 1-.328.147h-4.76a.42.42 0 0 1-.419-.328.5.5 0 0 1-.005-.203c.115-.617.47-1.135 1.03-1.5.498-.322 1.128-.5 1.774-.5s1.277.178 1.774.5c.56.365.916.883 1.03 1.5a.46.46 0 0 1-.096.384"/></svg>
